assets/transparent-6bce5abd.svg

<svg width="64" height="64" viewBox="0 0 64 64" fill="none" xmlns="http://www.w3.org/2000/svg">
    <path fill-rule="evenodd" clip-rule="evenodd" d="M25 39H20C17.7909 39 16 37.2091 16 35V20C16 17.7909 17.7909 16 20 16H35C37.2091 16 39 17.7909 39 20V25H44C46.2091 25 48 26.7909 48 29V44C48 46.2091 46.2091 48 44 48H29C26.7909 48 25 46.2091 25 44V39ZM34 20C34.5523 20 35 20.4477 35 21V25H29C26.7909 25 25 26.7909 25 29V35H21C20.4477 35 20 34.5523 20 34L20 21C20 20.4477 20.4477 20 21 20H34ZM39 29H43C43.5523 29 44 29.4477 44 30V43C44 43.5523 43.5523 44 43 44H30C29.4477 44 29 43.5523 29 43V39H35C37.2091 39 39 37.2091 39 35V29ZM35 29V34C35 34.5523 34.5523 35 34 35H29V30C29 29.4477 29.4477 29 30 29H35Z" fill="#1976D2"/>
    <rect x="0.5" y="0.5" width="63" height="63" rx="31.5" stroke="#D3D3D3"/>
</svg>

<svg xmlns="http://www.w3.org/2000/svg" width="64" height="64" fill="none" viewBox="0 0 64 64"><path fill="#1976D2" fill-rule="evenodd" d="M25 39h-5a4 4 0 0 1-4-4V20a4 4 0 0 1 4-4h15a4 4 0 0 1 4 4v5h5a4 4 0 0 1 4 4v15a4 4 0 0 1-4 4H29a4 4 0 0 1-4-4zm9-19a1 1 0 0 1 1 1v4h-6a4 4 0 0 0-4 4v6h-4a1 1 0 0 1-1-1V21a1 1 0 0 1 1-1zm5 9h4a1 1 0 0 1 1 1v13a1 1 0 0 1-1 1H30a1 1 0 0 1-1-1v-4h6a4 4 0 0 0 4-4zm-4 0v5a1 1 0 0 1-1 1h-5v-5a1 1 0 0 1 1-1z" clip-rule="evenodd"/><rect width="63" height="63" x="0.5" y="0.5" stroke="#D3D3D3" rx="31.5"/></svg>
